X: 168
T: Song dage
L: 1/8
M: 2/4
K: G
d d c d [I:setbarnb 1]| 
[M:3/4]ze2BA2 | 
[M:2/4]B B E G | 
[M:3/4]zA2ED2 | 
[M:2/4]e d e d | 
c e d B | 
A A/ G/ E G | 
zA2ED2 |]

@@@ Tune index: 9042
